svg/home.svg

<svg xmlns="http://www.w3.org/2000/svg" viewBox="0 0 24 24"><path d="M10 20v-6h4v6h5v-8h3L12 3 2 12h3v8z"/></svg>

<?xml version="1.0" encoding="UTF-8"?><!DOCTYPE svg PUBLIC "-//W3C//DTD SVG 1.1//EN" "http://www.w3.org/Graphics/SVG/1.1/DTD/svg11.dtd"><svg xmlns="http://www.w3.org/2000/svg" xmlns:xlink="http://www.w3.org/1999/xlink" version="1.1" id="mdi-home" width="24" height="24" viewBox="0 0 24 24"><path d="M10,20V14H14V20H19V12H22L12,3L2,12H5V20H10Z" /></svg>
